resources/haticons/SVG/exposure_plus_1.svg

<!-- Generated by IcoMoon.io -->
<svg version="1.1" xmlns="http://www.w3.org/2000/svg" width="24" height="24" viewBox="0 0 24 24">
<title>exposure_plus_1</title>
<path d="M20.016 18h-2.016v-10.641l-3 1.031v-1.688l4.688-1.688h0.328v12.984zM9.984 6.984v4.031h4.031v1.969h-4.031v4.031h-1.969v-4.031h-4.031v-1.969h4.031v-4.031h1.969z"></path>
</svg>

<svg xmlns="http://www.w3.org/2000/svg" width="24" height="24"><path d="M20.016 18H18V7.359L15 8.39V6.702l4.688-1.688h.328v12.984zM9.984 6.984v4.031h4.031v1.969H9.984v4.031H8.015v-4.031H3.984v-1.969h4.031V6.984h1.969z"/></svg>
